X:1
T:Flora (Le Jeune), CMD
T:Flora (Le Jeune), CMD
T:George Fitz-Curwood Le Jeune (1841-1904)
T:Public Domain Courtesy of the Cyber Hymnal™
C:George Fitz-Curwood Le Jeune (1841-1904)
Z:Public Domain
Z:Courtesy of the Cyber Hymnal™
%%score ( 1 2 ) ( 3 4 )
L:1/8
Q:1/4=112
M:6/8
K:Eb
V:1 treble 
V:2 treble 
V:3 bass 
V:4 bass 
V:1
 [GB] | [Ge]2 [Ge] ed[Dc] | [EB]2 [EG] [EB]2 [Ec] | [EB]2 [EG] (FG)[DA] | [EG]3- [EG]2 [GB] | %5
 [Ge]2 [Ge] (ed)[Dc] | [EB]2 [EG] [FB]2 [Gc] | [Fd]2 [=Ed] (cd)[_Ec] | [DB]3- [DB]2 [DB] | %9
 [Dc]2 [Dc] (FG)[DF] | [_DB]2 [DB] (EF)[CE] | [CA]2 [CA] (AG)[DF] | ([EG-]3 [FG]2) [FG] | %13
 [Ee]2 [Ge] [Fd]2 [Ec] | [DB]2 [DB] [_DB]2 [CA] | [DG]2 [DF] (FG)[DF] | E3- E2 |] %17
V:2
 x | x3 A2 x | x6 | x3 E2 x | x6 | x3 A2 x | x6 | x3 _E2 x | x6 | x3 D2 x | x3 C2 x | x3 D2 x | %12
 x6 | x6 | x6 | x3 D2 x | E3- E2 |] %17
V:3
 [E,B,] | [E,B,]2 [E,B,] [E,C]2 [F,A,] | A,2 [E,B,] [E,G,]2 [=A,,^F,] | %3
 [B,,G,]2 [B,,B,] (A,B,)[B,,C] | [E,B,]3- [E,B,]2 [E,B,] | [E,B,]2 [E,B,] [F,A,]2 [F,A,] | %6
 G,2 [E,B,] [D,B,]2 [=E,B,] | [F,B,]2 [G,B,] [C,B,]2 [F,=A,] | [B,,B,]3- [B,,B,]2 [B,,A,] | %9
 [B,,A,]2 [B,,A,] [B,,A,]2 [B,,A,] | [E,G,]2 [E,G,] A,2 [G,A,] | [F,A,]2 [F,A,] [B,,B,]2 [B,,B,] | %12
 ([E,B,-]3 [D,=B,]2) [D,B,] | [C,C]2 [E,C] [G,=B,]2 [A,C] | [F,A,]2 [F,A,] [=E,G,]2 [F,A,] | %15
 [B,,B,]2 [B,,A,] (A,B,)[B,,A,] | [E,G,]3- [E,G,]2 |] %17
V:4
 x | x6 | =A,2 x4 | x3 B,,2 x | x6 | x6 | G,2 x4 | x6 | x6 | x6 | x3 A,2 x | x6 | x6 | x6 | x6 | %15
 x3 B,,2 x | x5 |] %17

